X: 130554
T: Mowing Machine
S: "Treoir" 
C: Junior Crehan
Z: B.Black
M: 4/4
L: 1/8
R: reel
K: Edor
ed | BE E2 EGFE | DB, B,2 DB,B,A, | GEED EFGA |\
(3Bcd ef gfed |
BEEE EGFE | DB, B,2 DB,B,A, | B,EED EFGA |\
(3Bcd ef e2 :|
zf | g2 eg bgeg | f2 df afdf | g2 eg bgeg |\
f2 ef Beef |
g2 eg bgeg | f2 df afdf | gbaf gedB | dBAF E3 :|
